assets/icons/care/iron_high.svg

<svg xmlns="http://www.w3.org/2000/svg" viewBox="0 0 453.5 453.5" style="enable-background:new 0 0 453.5 453.5" xml:space="preserve"><path d="M437.4 369 360.8 85.5H119.9V111h221.4l26.8 99.2H169.5c-51.1 0-69.2 22.3-89.3 53.9-7.8 12.3-36.7 58.8-53.1 85.4L15 369h422.4zM375 235.8l29.1 107.7H60.8c15.9-25.6 34.8-56.1 40.9-65.7 17.6-27.6 28.6-42 67.8-42H375zm-56.9 53.8c0-9.4-7.6-17-17-17s-17 7.6-17 17 7.6 17 17 17 17-7.6 17-17zm-59.6 0c0-9.4-7.6-17-17-17s-17 7.6-17 17 7.6 17 17 17 17-7.6 17-17zm-59.5 0c0-9.4-7.6-17-17-17s-17 7.6-17 17 7.6 17 17 17 17-7.6 17-17z"/></svg>

<?xml version="1.0" encoding="utf-8"?>
<!-- Generator: Adobe Illustrator 23.0.4, SVG Export Plug-In . SVG Version: 6.00 Build 0)  -->
<svg version="1.1" id="Ebene_1" xmlns="http://www.w3.org/2000/svg" xmlns:xlink="http://www.w3.org/1999/xlink" x="0px" y="0px"
	 viewBox="0 0 453.5 453.5" style="enable-background:new 0 0 453.5 453.5;" xml:space="preserve">
<g>
	<path d="M437.4,369L360.8,85.5H119.9v25.5h221.4l26.8,99.2H169.5c-51.1,0-69.2,22.3-89.3,53.9c-7.8,12.3-36.7,58.8-53.1,85.4
		L15,369H437.4L437.4,369z M375,235.8l29.1,107.7H60.8c15.9-25.6,34.8-56.1,40.9-65.7c17.6-27.6,28.6-42,67.8-42H375L375,235.8z
		 M318.1,289.6c0-9.4-7.6-17-17-17c-9.4,0-17,7.6-17,17c0,9.4,7.6,17,17,17C310.5,306.6,318.1,299,318.1,289.6L318.1,289.6z
		 M258.5,289.6c0-9.4-7.6-17-17-17c-9.4,0-17,7.6-17,17c0,9.4,7.6,17,17,17C250.9,306.6,258.5,299,258.5,289.6L258.5,289.6z
		 M199,289.6c0-9.4-7.6-17-17-17s-17,7.6-17,17c0,9.4,7.6,17,17,17S199,299,199,289.6L199,289.6z"/>
</g>
</svg>
